Origami/22x22/apps/yaourtgui.svg

<svg width="22" height="22" version="1" xmlns="http://www.w3.org/2000/svg">
 <rect transform="matrix(0,-1,-1,0,0,0)" x="-21" y="-21" width="20" height="20" rx="10" ry="10" style="fill:#33aadd"/>
 <path d="m11 1c-5.54 0-10 4.46-10 10 0 0.084 4e-3 0.166 0.0058 0.25 0.1324-5.423 4.5382-9.75 9.9942-9.75 5.4558 0 9.862 4.327 9.994 9.75 2e-3 -0.08343 0.0059-0.16606 0.0059-0.25 0-5.54-4.46-10-10-10z" style="fill:#ffffff;opacity:.2"/>
 <path d="m5.0212 4.8075-2.1212 2.121l6.2 6.2005v7.371h3v-7.379l6.1925-6.1925-2.121-2.121-5.5755 5.5755-5.575-5.5755z" style="opacity:.2"/>
 <path d="m5.0212 4.3075-2.1212 2.121 6.2 6.2005v7.371h3v-7.379l6.1925-6.1925-2.121-2.121-5.5755 5.5755-5.575-5.5755z" style="fill:#80fe9b"/>
 <path d="m1.0058 11.25c-2e-3 0.084-0.0058 0.166-0.0058 0.25 0 5.54 4.46 10 10 10s10-4.46 10-10c0-0.08394-0.0038-0.16657-0.0059-0.25-0.132 5.423-4.538 9.75-9.994 9.75s-9.862-4.327-9.994-9.75z" style="opacity:.2"/>
</svg>

<svg xmlns="http://www.w3.org/2000/svg" width="22" height="22" version="1">
 <rect style="fill:#33aadd" width="20" height="20" x="-21" y="-21" rx="10" ry="10" transform="matrix(0,-1,-1,0,0,0)"/>
 <path style="opacity:0.2;fill:#ffffff" d="M 11,1 C 5.46,1 1,5.46 1,11 1,11.084 1.004,11.166 1.0058,11.25 1.1382,5.827 5.544,1.5 11,1.5 c 5.4558,0 9.862,4.327 9.994,9.75 0.002,-0.08343 0.0059,-0.16606 0.0059,-0.25 0,-5.54 -4.46,-10 -10,-10 z"/>
 <path style="opacity:0.2" d="M 5.0212,4.8075 2.9,6.9285 l 6.2,6.2005 0,7.371 3,0 0,-7.379 6.1925,-6.1925 -2.121,-2.121 L 10.596,10.383 5.021,4.8075 Z"/>
 <path style="fill:#80fe9b" d="M 5.0212,4.3075 2.9,6.4285 9.1,12.629 9.1,20 l 3,0 0,-7.379 6.1925,-6.1925 -2.121,-2.121 L 10.596,9.883 5.021,4.3075 Z"/>
 <path style="opacity:0.2" d="M 1.0058,11.25 C 1.0038,11.334 1,11.416 1,11.5 c 0,5.54 4.46,10 10,10 5.54,0 10,-4.46 10,-10 0,-0.08394 -0.0038,-0.16657 -0.0059,-0.25 -0.132,5.423 -4.538,9.75 -9.994,9.75 -5.456,0 -9.862,-4.327 -9.994,-9.75 z"/>
</svg>
